X:1
T:Title
%%score ( 1 2 ) { 3 | 4 }
L:1/8
Q:1/4=108
M:4/4
K:Bb
V:1 treble nm="Grand Piano, Staff 1"
V:2 treble 
V:3 treble nm="Choir Pad, The Waits� Song"
V:4 bass 
V:1
 [^FA]2 [GB]2 [FA]2 G2 | G-[GB]cB AG [D^F]2 | D2 [DG]2 [DA]2 [DB]2 | [Gc]2 [^Fd]6 | %4
w: By~English~Traditional * * *||||
 Bc [Fd]2 ed [Cc]2 | [Fd]2 [EB]2 [Ec]2 [DA]2 | .B2 z2 z2 .B2 | .G2 z2 z4 | z8 |] %9
w: |||||
V:2
 x8 | .A2 G2 E2 z2 | x8 | x8 | F2 z2 G2 z2 | x8 | D-[Dc] [Gd]2 G[FG]E-[EA] | D-[D^F] [DG]6- | %8
 [DG]2 z2 z4 |] %9
V:3
 D2 D2 C2 B,2 | CDED C[K:bass]B, A,2 | ^F,2 G,2 F,2 G,2 | G,2 A,6 | B,A,B,D CB, A,2 | %5
 A,2 G,B, A,G, ^F,2 | G,A, B,2[K:treble] DDDC | B,[K:bass]A, B,6- | B,2 z2 z4 |] %9
V:4
 D,2 G,2 D,2 E,2 | E,D, C,2 C,2 D,2 | C,2 B,,2 D,2 z2 | E,2 D,6 | D,C, B,,2 E,2 F,2 | %5
 D,2 E,2 C,2 D,C, | B,,A,, G,,2 B,,B,, C,2 | D,2 [G,,G,]6- | [G,,G,]2 z2 z4 |] %9

